static/assets/images/exchanges/wombat.svg

<svg width="284" height="256" viewBox="0 0 284 256" fill="none" xmlns="http://www.w3.org/2000/svg">
<path d="M85.1048 20.7704L42.7517 20.8555C42.6993 20.8555 42.6491 20.8763 42.6121 20.9134C42.5751 20.9504 42.5544 21.0006 42.5544 21.053V85.0404C42.5544 85.0753 42.5405 85.1088 42.5158 85.1335C42.4912 85.1581 42.4577 85.172 42.4228 85.172L21.4706 85.1798C21.4203 85.1798 21.3721 85.2002 21.3366 85.2365C21.301 85.2728 21.281 85.322 21.281 85.3733L21.2849 199.043L21.2772 212.915C21.2772 213.045 21.3293 213.17 21.4222 213.262C21.5151 213.354 21.641 213.406 21.7724 213.406L63.8161 213.387L63.9437 220.452L63.8315 234.138C63.8289 234.517 64.0172 234.707 64.3963 234.707L219.716 234.711C219.831 234.711 219.941 234.665 220.022 234.584C220.103 234.503 220.149 234.392 220.149 234.277L220.153 220.332L220.168 219.639L220.172 214.01C220.172 213.85 220.236 213.696 220.35 213.583C220.464 213.47 220.619 213.406 220.78 213.406H262.282C262.396 213.406 262.505 213.361 262.585 213.28C262.666 213.2 262.711 213.091 262.711 212.977L262.723 199.039C262.725 161.135 262.725 123.227 262.723 85.3153C262.684 85.2585 262.706 85.2107 262.789 85.172H283.869C283.903 85.172 283.937 85.1859 283.962 85.2106C283.986 85.2353 284 85.2687 284 85.3037V213.205C284 213.247 283.984 213.287 283.955 213.317C283.926 213.347 283.886 213.364 283.845 213.364H262.893C262.78 213.364 262.723 213.42 262.723 213.534L262.727 234.463C262.727 234.626 262.645 234.707 262.483 234.707H220.257C220.234 234.707 220.211 234.716 220.195 234.733C220.178 234.75 220.168 234.772 220.168 234.796L220.172 255.923C220.172 255.943 220.164 255.963 220.15 255.977C220.135 255.992 220.115 256 220.095 256H64.0482C63.9037 256 63.8315 255.926 63.8315 255.779V234.939C63.8315 234.784 63.7542 234.707 63.5994 234.707H21.4474C21.4022 234.707 21.359 234.689 21.327 234.657C21.2951 234.625 21.2772 234.582 21.2772 234.537V213.557C21.2772 213.428 21.2127 213.364 21.0837 213.364H0.193427C0.0644746 213.364 0 213.299 0 213.17V85.292C0 85.2592 0.0126324 85.2277 0.0351229 85.2044C0.0576133 85.1812 0.088119 85.1681 0.119925 85.1681H21.0605C21.118 85.1681 21.1731 85.1453 21.2137 85.1047C21.2544 85.064 21.2772 85.0088 21.2772 84.9513V0.170341C21.2772 0.125163 21.2947 0.0818403 21.3259 0.0498946C21.3571 0.0179488 21.3994 0 21.4435 0H84.9037C84.955 0 85.0042 0.0208049 85.0404 0.0578329C85.0767 0.0948608 85.0971 0.14508 85.0971 0.197445L85.1048 20.7704Z" fill="#4A402E"/>
<path d="M262.723 85.0404C262.702 85.0765 262.679 85.1101 262.653 85.1411C262.63 85.1643 262.603 85.1759 262.572 85.1759H241.593C241.554 85.1759 241.516 85.16 241.489 85.1317C241.461 85.1034 241.446 85.065 241.446 85.0249L241.45 20.991C241.45 20.9551 241.435 20.9206 241.409 20.8952C241.383 20.8698 241.347 20.8555 241.31 20.8555H199.112C198.97 20.8555 198.899 20.9278 198.899 21.0723V41.5911C198.899 41.6711 198.859 41.7111 198.779 41.7111H85.2944C85.27 41.7111 85.2459 41.7063 85.2233 41.6969C85.2008 41.6876 85.1803 41.6739 85.1631 41.6566C85.1458 41.6394 85.1322 41.6189 85.1228 41.5963C85.1135 41.5738 85.1087 41.5496 85.1087 41.5252L85.19 20.8555H198.74C198.841 20.8555 198.891 20.8052 198.891 20.7046V0.181958C198.891 0.1337 198.91 0.0874154 198.945 0.0532916C198.979 0.0191677 199.025 0 199.073 0H262.626C262.691 0 262.723 0.0322633 262.723 0.0967875V85.0404Z" fill="#4A402E"/>
<path d="M85.1048 20.7704C84.9527 20.8065 84.981 20.8349 85.19 20.8555L85.1087 41.5252C85.1087 41.5496 85.1135 41.5738 85.1228 41.5963C85.1322 41.6189 85.1458 41.6394 85.1631 41.6566C85.1803 41.6739 85.2008 41.6876 85.2233 41.6969C85.2459 41.7063 85.27 41.7111 85.2944 41.7111H198.779C198.859 41.7111 198.899 41.6711 198.899 41.5911V21.0723C198.899 20.9278 198.97 20.8555 199.112 20.8555H241.31C241.347 20.8555 241.383 20.8698 241.409 20.8952C241.435 20.9206 241.45 20.9551 241.45 20.991L241.446 85.0249C241.446 85.065 241.461 85.1034 241.489 85.1317C241.516 85.16 241.554 85.1759 241.593 85.1759H262.572C262.603 85.1759 262.63 85.1643 262.653 85.1411C262.679 85.1101 262.702 85.0765 262.723 85.0404C262.715 85.1049 262.737 85.1488 262.789 85.172C262.706 85.2107 262.684 85.2585 262.723 85.3153C262.725 123.227 262.725 161.135 262.723 199.039L220.312 199.043C220.294 199.043 220.276 199.047 220.26 199.053C220.243 199.06 220.228 199.07 220.216 199.083C220.203 199.095 220.193 199.11 220.187 199.127C220.18 199.143 220.176 199.161 220.176 199.179L220.168 219.639L220.153 220.332L156.364 220.332V213.639C156.364 213.578 156.388 213.52 156.43 213.477C156.472 213.434 156.529 213.41 156.588 213.41H170.511C170.55 213.41 170.588 213.395 170.615 213.367C170.643 213.339 170.658 213.302 170.658 213.263L170.655 206.275C170.655 206.097 170.742 206.008 170.918 206.008H184.806C184.917 206.008 184.972 205.952 184.972 205.841V156.531C184.972 156.51 184.964 156.49 184.949 156.476C184.935 156.461 184.915 156.453 184.895 156.453H170.871C170.724 156.453 170.651 156.526 170.651 156.67V184.545C170.651 184.658 170.595 184.715 170.484 184.715H156.561C156.417 184.715 156.345 184.644 156.345 184.502V177.967C156.345 177.82 156.271 177.746 156.124 177.746H127.856C127.728 177.746 127.663 177.811 127.663 177.94V184.521C127.663 184.65 127.599 184.715 127.47 184.715H113.543C113.491 184.715 113.442 184.694 113.406 184.658C113.37 184.622 113.349 184.573 113.349 184.521V156.647C113.349 156.518 113.285 156.453 113.156 156.453H99.1323C99.0923 156.453 99.0539 156.469 99.0256 156.496C98.9973 156.524 98.9814 156.561 98.9814 156.6V205.884C98.9814 205.967 99.0227 206.008 99.1052 206.008H113.156C113.285 206.008 113.349 206.072 113.349 206.201V213.193C113.349 213.34 113.422 213.414 113.566 213.414L127.45 213.41C127.564 213.41 127.622 213.467 127.624 213.58L127.659 220.332L63.9437 220.452L63.8161 213.387L63.8277 199.159C63.8277 199.13 63.8154 199.101 63.7937 199.08C63.7719 199.059 63.7424 199.047 63.7116 199.047L21.2849 199.043L21.281 85.3733C21.281 85.322 21.301 85.2728 21.3366 85.2365C21.3721 85.2002 21.4203 85.1798 21.4706 85.1798L42.4228 85.172C42.4577 85.172 42.4912 85.1581 42.5158 85.1335C42.5405 85.1088 42.5544 85.0753 42.5544 85.0404V21.053C42.5544 21.0006 42.5751 20.9504 42.6121 20.9134C42.6491 20.8763 42.6993 20.8555 42.7517 20.8555L85.1048 20.7704ZM64.2725 42.7951C64.2725 42.7691 64.2777 42.7435 64.2876 42.7195C64.2975 42.6956 64.312 42.6738 64.3303 42.6555C64.3487 42.6371 64.3704 42.6226 64.3943 42.6127C64.4183 42.6027 64.4439 42.5976 64.4698 42.5976H71.0464C71.0988 42.5976 71.1489 42.5768 71.1859 42.5398C71.2229 42.5028 71.2437 42.4526 71.2437 42.4002L71.2476 28.4591C71.2476 28.4067 71.2268 28.3565 71.1898 28.3195C71.1528 28.2824 71.1026 28.2616 71.0503 28.2616L50.1561 28.2655C50.1038 28.2655 50.0536 28.2863 50.0166 28.3233C49.9796 28.3604 49.9588 28.4106 49.9588 28.4629V49.3649C49.9588 49.4173 49.9796 49.4675 50.0166 49.5045C50.0536 49.5416 50.1038 49.5624 50.1561 49.5624L64.0869 49.5662C64.1392 49.5662 64.1894 49.5454 64.2264 49.5084C64.2634 49.4714 64.2842 49.4212 64.2842 49.3688L64.2725 42.7951ZM220.018 42.5937C220.061 42.5937 220.102 42.6109 220.133 42.6414C220.163 42.6719 220.18 42.7132 220.18 42.7563L220.176 49.3998C220.176 49.4429 220.193 49.4842 220.224 49.5147C220.254 49.5452 220.296 49.5624 220.339 49.5624L234.335 49.5662C234.378 49.5662 234.42 49.5491 234.45 49.5186C234.481 49.4881 234.498 49.4468 234.498 49.4036L234.502 28.432C234.502 28.3889 234.484 28.3475 234.454 28.317C234.424 28.2865 234.382 28.2694 234.339 28.2694H213.395C213.352 28.2694 213.31 28.2865 213.28 28.317C213.249 28.3475 213.232 28.3889 213.232 28.432L213.217 42.435C213.217 42.4564 213.221 42.4775 213.229 42.4972C213.237 42.517 213.249 42.5349 213.264 42.55C213.279 42.5651 213.297 42.5771 213.317 42.5853C213.337 42.5934 213.358 42.5976 213.379 42.5976L220.018 42.5937ZM106.827 120.964C106.827 120.93 106.813 120.897 106.79 120.873C106.766 120.849 106.733 120.836 106.699 120.836H85.2364C85.2025 120.836 85.17 120.849 85.1461 120.873C85.1221 120.897 85.1087 120.93 85.1087 120.964V142.435C85.1087 142.469 85.1221 142.501 85.1461 142.525C85.17 142.549 85.2025 142.562 85.2364 142.562H106.699C106.733 142.562 106.766 142.549 106.79 142.525C106.813 142.501 106.827 142.469 106.827 142.435V120.964ZM198.775 142.566C198.808 142.566 198.84 142.553 198.863 142.53C198.886 142.507 198.899 142.475 198.899 142.442V120.96C198.899 120.927 198.886 120.895 198.863 120.872C198.84 120.849 198.808 120.836 198.775 120.836H177.305C177.272 120.836 177.24 120.849 177.217 120.872C177.194 120.895 177.181 120.927 177.181 120.96V142.439C177.181 142.471 177.194 142.503 177.217 142.526C177.24 142.549 177.272 142.562 177.305 142.562L198.775 142.566ZM127.663 142.28C127.663 142.24 127.647 142.201 127.619 142.173C127.591 142.145 127.552 142.129 127.512 142.129H113.5C113.46 142.129 113.422 142.145 113.394 142.173C113.365 142.201 113.349 142.24 113.349 142.28V156.302C113.349 156.342 113.365 156.381 113.394 156.409C113.422 156.437 113.46 156.453 113.5 156.453H127.512C127.552 156.453 127.591 156.437 127.619 156.409C127.647 156.381 127.663 156.342 127.663 156.302V142.28ZM170.658 142.268C170.658 142.231 170.644 142.196 170.618 142.17C170.592 142.144 170.556 142.129 170.519 142.129H156.476C156.439 142.129 156.404 142.144 156.378 142.17C156.352 142.196 156.337 142.231 156.337 142.268V156.314C156.337 156.351 156.352 156.386 156.378 156.412C156.404 156.439 156.439 156.453 156.476 156.453H170.519C170.556 156.453 170.592 156.439 170.618 156.412C170.644 156.386 170.658 156.351 170.658 156.314V142.268Z" fill="#B7A38E"/>
<path d="M64.2725 42.7951L64.2842 49.3688C64.2842 49.4212 64.2634 49.4714 64.2264 49.5084C64.1894 49.5454 64.1392 49.5662 64.0869 49.5662L50.1561 49.5624C50.1038 49.5624 50.0536 49.5416 50.0166 49.5045C49.9796 49.4675 49.9588 49.4173 49.9588 49.3649V28.4629C49.9588 28.4106 49.9796 28.3604 50.0166 28.3233C50.0536 28.2863 50.1038 28.2655 50.1561 28.2655L71.0503 28.2616C71.1026 28.2616 71.1528 28.2824 71.1898 28.3195C71.2268 28.3565 71.2476 28.4067 71.2476 28.4591L71.2437 42.4002C71.2437 42.4526 71.2229 42.5028 71.1859 42.5398C71.1489 42.5768 71.0988 42.5976 71.0464 42.5976H64.4698C64.4439 42.5976 64.4183 42.6027 64.3943 42.6127C64.3704 42.6226 64.3487 42.6371 64.3303 42.6555C64.312 42.6738 64.2975 42.6956 64.2876 42.7195C64.2777 42.7435 64.2725 42.7691 64.2725 42.7951Z" fill="#6A5C52"/>
<path d="M220.018 42.5937L213.379 42.5976C213.358 42.5976 213.337 42.5934 213.317 42.5853C213.297 42.5771 213.279 42.5651 213.264 42.55C213.249 42.5349 213.237 42.517 213.229 42.4972C213.221 42.4775 213.217 42.4564 213.217 42.435L213.232 28.432C213.232 28.3889 213.249 28.3475 213.28 28.317C213.31 28.2865 213.352 28.2694 213.395 28.2694H234.339C234.382 28.2694 234.424 28.2865 234.454 28.317C234.484 28.3475 234.502 28.3889 234.502 28.432L234.498 49.4036C234.498 49.4468 234.481 49.4881 234.45 49.5186C234.42 49.5491 234.378 49.5662 234.335 49.5662L220.339 49.5624C220.296 49.5624 220.254 49.5452 220.224 49.5147C220.193 49.4842 220.176 49.4429 220.176 49.3998L220.18 42.7563C220.18 42.7132 220.163 42.6719 220.133 42.6414C220.102 42.6109 220.061 42.5937 220.018 42.5937Z" fill="#6A5C52"/>
<path d="M106.699 120.836H85.2364C85.1659 120.836 85.1087 120.893 85.1087 120.964V142.435C85.1087 142.505 85.1659 142.562 85.2364 142.562H106.699C106.77 142.562 106.827 142.505 106.827 142.435V120.964C106.827 120.893 106.77 120.836 106.699 120.836Z" fill="#4A402E"/>
<path d="M198.775 142.566L177.305 142.562C177.272 142.562 177.24 142.549 177.217 142.526C177.194 142.503 177.181 142.471 177.181 142.439V120.96C177.181 120.927 177.194 120.895 177.217 120.872C177.24 120.849 177.272 120.836 177.305 120.836H198.775C198.808 120.836 198.84 120.849 198.863 120.872C198.886 120.895 198.899 120.927 198.899 120.96V142.442C198.899 142.475 198.886 142.507 198.863 142.53C198.84 142.553 198.808 142.566 198.775 142.566Z" fill="#4A402E"/>
<path d="M127.512 142.129H113.5C113.417 142.129 113.349 142.196 113.349 142.28V156.302C113.349 156.386 113.417 156.453 113.5 156.453H127.512C127.595 156.453 127.663 156.386 127.663 156.302V142.28C127.663 142.196 127.595 142.129 127.512 142.129Z" fill="#4A402E"/>
<path d="M170.519 142.129H156.476C156.399 142.129 156.337 142.191 156.337 142.268V156.314C156.337 156.391 156.399 156.453 156.476 156.453H170.519C170.596 156.453 170.658 156.391 170.658 156.314V142.268C170.658 142.191 170.596 142.129 170.519 142.129Z" fill="#4A402E"/>
<path d="M156.364 220.332L149.126 220.328C149.002 220.328 148.94 220.389 148.94 220.51V227.204C148.94 227.269 148.908 227.301 148.844 227.301H134.723C134.698 227.301 134.673 227.291 134.655 227.273C134.637 227.254 134.626 227.23 134.626 227.204V220.534C134.626 220.394 134.557 220.325 134.418 220.325L127.659 220.332L127.624 213.58C127.622 213.467 127.564 213.41 127.45 213.41L113.566 213.414C113.422 213.414 113.349 213.34 113.349 213.193V206.201C113.349 206.072 113.285 206.008 113.156 206.008H99.1052C99.0227 206.008 98.9814 205.967 98.9814 205.884V156.6C98.9814 156.561 98.9973 156.524 99.0256 156.496C99.0539 156.469 99.0923 156.453 99.1323 156.453H113.156C113.285 156.453 113.349 156.518 113.349 156.647V184.521C113.349 184.573 113.37 184.622 113.406 184.658C113.442 184.694 113.491 184.715 113.543 184.715H127.47C127.599 184.715 127.663 184.65 127.663 184.521V177.94C127.663 177.811 127.728 177.746 127.856 177.746H156.124C156.271 177.746 156.345 177.82 156.345 177.967V184.502C156.345 184.644 156.417 184.715 156.561 184.715H170.484C170.595 184.715 170.651 184.658 170.651 184.545V156.67C170.651 156.526 170.724 156.453 170.871 156.453H184.895C184.915 156.453 184.935 156.461 184.949 156.476C184.964 156.49 184.972 156.51 184.972 156.531V205.841C184.972 205.952 184.917 206.008 184.806 206.008H170.918C170.742 206.008 170.655 206.097 170.655 206.275L170.658 213.263C170.658 213.302 170.643 213.339 170.615 213.367C170.588 213.395 170.55 213.41 170.511 213.41H156.588C156.529 213.41 156.472 213.434 156.43 213.477C156.388 213.52 156.364 213.578 156.364 213.639V220.332Z" fill="#4A402E"/>
<path d="M21.2849 199.043L63.7116 199.047C63.7424 199.047 63.7719 199.059 63.7937 199.08C63.8154 199.101 63.8277 199.13 63.8277 199.159L63.8161 213.387L21.7724 213.406C21.641 213.406 21.5151 213.354 21.4222 213.262C21.3293 213.17 21.2772 213.045 21.2772 212.915L21.2849 199.043Z" fill="#6A5C52"/>
<path d="M262.723 199.039L262.711 212.977C262.711 213.091 262.666 213.2 262.585 213.28C262.505 213.361 262.396 213.406 262.282 213.406H220.78C220.619 213.406 220.464 213.47 220.35 213.583C220.236 213.696 220.172 213.85 220.172 214.01L220.168 219.639L220.176 199.179C220.176 199.161 220.18 199.143 220.187 199.127C220.193 199.11 220.203 199.095 220.216 199.083C220.228 199.07 220.243 199.06 220.26 199.053C220.276 199.047 220.294 199.043 220.312 199.043L262.723 199.039Z" fill="#6A5C52"/>
<path d="M127.659 220.332L134.418 220.325C134.557 220.325 134.626 220.394 134.626 220.534V227.204C134.626 227.23 134.637 227.254 134.655 227.273C134.673 227.291 134.698 227.301 134.723 227.301H148.844C148.908 227.301 148.94 227.269 148.94 227.204V220.51C148.94 220.389 149.002 220.328 149.126 220.328L156.364 220.332L220.153 220.332L220.149 234.277C220.149 234.392 220.103 234.503 220.022 234.584C219.941 234.665 219.831 234.711 219.716 234.711L64.3963 234.707C64.0172 234.707 63.8289 234.517 63.8315 234.138L63.9437 220.452L127.659 220.332Z" fill="#6A5C52"/>
</svg>

<svg xmlns="http://www.w3.org/2000/svg" fill="none" viewBox="0 0 284 256"><path fill="#4A402E" d="m85.105 20.77-42.353.085a.197.197 0 0 0-.198.198V85.04a.13.13 0 0 1-.131.132l-20.952.008c-.05 0-.099.02-.134.056a.2.2 0 0 0-.056.137l.004 113.67-.008 13.872c0 .13.052.255.145.347a.5.5 0 0 0 .35.144l42.044-.019.128 7.065-.113 13.686q-.003.569.565.569l155.32.004a.433.433 0 0 0 .433-.434l.004-13.945.015-.693.004-5.629c0-.16.064-.314.178-.427a.6.6 0 0 1 .43-.177h41.502a.43.43 0 0 0 .303-.126.43.43 0 0 0 .126-.303l.012-13.938q.003-56.856 0-113.724-.058-.084.066-.143h21.08c.034 0 .068.014.093.039a.13.13 0 0 1 .038.093v127.901a.16.16 0 0 1-.045.112.15.15 0 0 1-.11.047h-20.952q-.17 0-.17.17l.004 20.929q0 .244-.244.244h-42.226a.1.1 0 0 0-.062.026.1.1 0 0 0-.027.063l.004 21.127a.077.077 0 0 1-.077.077H64.048q-.216 0-.217-.221v-20.84q0-.232-.232-.232H21.447a.17.17 0 0 1-.17-.17v-20.98q0-.193-.193-.193H.194q-.194 0-.194-.194V85.292q.001-.05.035-.088a.12.12 0 0 1 .085-.036h20.94a.217.217 0 0 0 .217-.217V.171c0-.046.018-.09.049-.121a.16.16 0 0 1 .117-.05h63.46c.052 0 .101.02.137.058a.2.2 0 0 1 .057.14z"/><path fill="#4A402E" d="M262.723 85.04a1 1 0 0 1-.07.101.11.11 0 0 1-.081.035h-20.979a.14.14 0 0 1-.104-.044.15.15 0 0 1-.043-.107l.004-64.034a.13.13 0 0 0-.041-.096.14.14 0 0 0-.099-.04h-42.198q-.213 0-.213.217v20.52q0 .12-.12.12H85.294a.185.185 0 0 1-.185-.187l.081-20.67h113.55q.151 0 .151-.15V.182a.18.18 0 0 1 .054-.129.18.18 0 0 1 .128-.053h63.553q.097 0 .097.097z"/><path fill="#B7A38E" d="M85.105 20.77q-.228.055.085.085l-.081 20.67a.186.186 0 0 0 .185.186H198.78q.12 0 .12-.12V21.072q0-.216.213-.216h42.198a.14.14 0 0 1 .099.04c.026.025.041.06.041.095l-.004 64.034q0 .062.043.107a.14.14 0 0 0 .104.044h20.979a.11.11 0 0 0 .081-.035 1 1 0 0 0 .07-.1q-.012.096.066.131-.125.059-.066.143.003 56.868 0 113.724l-42.411.004a.2.2 0 0 0-.052.01.1.1 0 0 0-.044.03.1.1 0 0 0-.029.044.1.1 0 0 0-.011.052l-.008 20.46-.015.693h-63.789v-6.693c0-.061.024-.119.066-.162a.22.22 0 0 1 .158-.067h13.923a.146.146 0 0 0 .147-.147l-.003-6.988q0-.267.263-.267h13.888q.166 0 .166-.167v-49.31a.08.08 0 0 0-.023-.055.07.07 0 0 0-.054-.023h-14.024q-.22 0-.22.217v27.875q0 .17-.167.17h-13.923q-.216 0-.216-.213v-6.535q0-.22-.221-.221h-28.268q-.193 0-.193.194v6.581q0 .194-.193.194h-13.927a.194.194 0 0 1-.194-.194v-27.874q0-.194-.193-.194H99.132a.16.16 0 0 0-.106.043.15.15 0 0 0-.045.104v49.284q0 .124.124.124h14.051q.193 0 .193.193v6.992q0 .22.217.221l13.884-.004q.171 0 .174.17l.035 6.752-63.715.12-.128-7.065.012-14.228a.1.1 0 0 0-.034-.079.12.12 0 0 0-.082-.033l-42.427-.004-.004-113.67c0-.051.02-.1.056-.136a.2.2 0 0 1 .134-.057l20.952-.008a.13.13 0 0 0 .131-.132V21.053a.197.197 0 0 1 .198-.198zM64.272 42.795a.2.2 0 0 1 .198-.197h6.576a.197.197 0 0 0 .198-.198l.004-13.94a.197.197 0 0 0-.198-.198l-20.894.003a.197.197 0 0 0-.197.198v20.902a.197.197 0 0 0 .197.197l13.93.004a.197.197 0 0 0 .198-.197zm155.746-.201q.067.001.115.047c.03.03.047.072.047.115l-.004 6.644a.16.16 0 0 0 .163.163l13.996.003a.16.16 0 0 0 .163-.162l.004-20.972a.16.16 0 0 0-.163-.163h-20.944a.16.16 0 0 0-.163.163l-.015 14.003a.17.17 0 0 0 .047.115.16.16 0 0 0 .115.048zm-113.191 78.37a.13.13 0 0 0-.037-.091.13.13 0 0 0-.091-.037H85.236a.127.127 0 0 0-.127.128v21.471a.127.127 0 0 0 .127.127H106.7a.13.13 0 0 0 .091-.037.13.13 0 0 0 .037-.09zm91.948 21.602a.13.13 0 0 0 .088-.036.13.13 0 0 0 .036-.088V120.96a.13.13 0 0 0-.036-.088.13.13 0 0 0-.088-.036h-21.47a.13.13 0 0 0-.088.036.13.13 0 0 0-.036.088v21.479c0 .032.013.064.036.087a.13.13 0 0 0 .088.036zm-71.112-.286a.15.15 0 0 0-.044-.107.15.15 0 0 0-.107-.044H113.5a.15.15 0 0 0-.106.044.15.15 0 0 0-.045.107v14.022c0 .04.016.079.045.107a.15.15 0 0 0 .106.044h14.012c.04 0 .079-.016.107-.044a.15.15 0 0 0 .044-.107zm42.995-.012a.14.14 0 0 0-.139-.139h-14.043a.14.14 0 0 0-.098.041.14.14 0 0 0-.041.098v14.046q.001.057.041.098a.13.13 0 0 0 .098.041h14.043a.14.14 0 0 0 .139-.139z"/><path fill="#6A5C52" d="m64.272 42.795.012 6.574a.197.197 0 0 1-.197.197l-13.93-.004a.197.197 0 0 1-.198-.197V28.463a.2.2 0 0 1 .197-.198l20.894-.003a.197.197 0 0 1 .198.197L71.244 42.4a.197.197 0 0 1-.198.198H64.47a.2.2 0 0 0-.182.121.2.2 0 0 0-.016.076m155.746-.201-6.639.004a.17.17 0 0 1-.115-.048.16.16 0 0 1-.047-.115l.015-14.003a.16.16 0 0 1 .163-.163h20.944a.16.16 0 0 1 .163.163l-.004 20.972a.16.16 0 0 1-.163.163l-13.996-.005a.16.16 0 0 1-.163-.162l.004-6.644a.16.16 0 0 0-.047-.115.16.16 0 0 0-.115-.047"/><path fill="#4A402E" d="M106.699 120.836H85.236a.13.13 0 0 0-.127.128v21.471c0 .07.057.127.127.127H106.7a.127.127 0 0 0 .128-.127v-21.471a.13.13 0 0 0-.128-.128m92.075 21.73-21.47-.004a.13.13 0 0 1-.088-.036.12.12 0 0 1-.036-.087V120.96q0-.052.036-.088a.13.13 0 0 1 .088-.036h21.47q.052 0 .088.036a.13.13 0 0 1 .036.088v21.482a.13.13 0 0 1-.036.088.13.13 0 0 1-.088.036m-71.263-.437H113.5a.15.15 0 0 0-.151.151v14.022a.15.15 0 0 0 .151.151h14.012a.15.15 0 0 0 .151-.151V142.28a.15.15 0 0 0-.151-.151m43.007 0h-14.043a.14.14 0 0 0-.139.139v14.046c0 .077.062.139.139.139h14.043a.14.14 0 0 0 .139-.139v-14.046a.14.14 0 0 0-.139-.139"/><path fill="#4A402E" d="m156.364 220.332-7.238-.004q-.186 0-.186.182v6.694q0 .097-.096.097h-14.121a.097.097 0 0 1-.097-.097v-6.67q0-.21-.208-.209l-6.759.007-.035-6.752q-.003-.17-.174-.17l-13.884.004q-.216 0-.217-.221v-6.992q0-.193-.193-.193h-14.05q-.125 0-.125-.124V156.6q0-.06.045-.104a.16.16 0 0 1 .106-.043h14.024q.193 0 .193.194v27.874a.194.194 0 0 0 .194.194h13.927q.193 0 .193-.194v-6.581q0-.194.193-.194h28.268q.22 0 .221.221v6.535q0 .213.216.213h13.923q.167 0 .167-.17V156.67q0-.216.22-.217h14.024q.032 0 .054.023a.08.08 0 0 1 .023.055v49.31q0 .167-.166.167h-13.888q-.263 0-.263.267l.003 6.988a.146.146 0 0 1-.147.147h-13.923a.22.22 0 0 0-.158.067.23.23 0 0 0-.066.162z"/><path fill="#6A5C52" d="m21.285 199.043 42.427.004a.114.114 0 0 1 .116.112l-.012 14.228-42.044.019a.5.5 0 0 1-.35-.144.5.5 0 0 1-.145-.347zm241.438-.004-.012 13.938a.43.43 0 0 1-.126.303.43.43 0 0 1-.303.126H220.78a.6.6 0 0 0-.43.177.6.6 0 0 0-.178.427l-.004 5.629.008-20.46q0-.028.011-.052a.1.1 0 0 1 .029-.044.1.1 0 0 1 .044-.03.2.2 0 0 1 .052-.01zm-135.064 21.293 6.759-.007q.208 0 .208.209v6.67a.097.097 0 0 0 .097.097h14.121q.096 0 .096-.097v-6.694q0-.182.186-.182l7.238.004h63.789l-.004 13.945a.435.435 0 0 1-.433.434l-155.32-.004q-.568 0-.565-.569l.113-13.686z"/></svg>
